svg/icon/appc.svg

<svg height="32" viewBox="0 0 32 32" width="32" xmlns="http://www.w3.org/2000/svg" xmlns:xlink="http://www.w3.org/1999/xlink"><defs><linearGradient id="a" x1="50%" x2="50%" y1="0%" y2="100%"><stop offset="0" stop-color="#fff" stop-opacity=".5"/><stop offset="1" stop-opacity=".5"/></linearGradient><circle id="b" cx="16" cy="15" r="15"/><filter id="c" height="111.7%" width="111.7%" x="-5.8%" y="-4.2%"><feOffset dy=".5" in="SourceAlpha" result="shadowOffsetOuter1"/><feGaussianBlur in="shadowOffsetOuter1" result="shadowBlurOuter1" stdDeviation=".5"/><feComposite in="shadowBlurOuter1" in2="SourceAlpha" operator="out" result="shadowBlurOuter1"/><feColorMatrix in="shadowBlurOuter1" values="0 0 0 0 0   0 0 0 0 0   0 0 0 0 0  0 0 0 0.199473505 0"/></filter><path id="d" d="m13.6608306 16.385699 2.3850574-7.11162651 2.4292251 7.11162651zm10.1107294 4.4970579-1.9728252-5.3084758h1.1778061c.4693255-.0039431.8482317-.3768032.8502288-.8366619 0-.2104191-.0853119-.41222-.2371679-.5610088s-.357817-.2323775-.5725738-.2323775h-1.8403221l-.2944515-.8258431h2.0942865c.4590454.0001531.8345731-.3581911.8465481-.8078115.0009839-.2212342-.0882775-.4336857-.2479401-.5901234s-.3764938-.2438962-.6022887-.2429322h-2.719996l-1.4722576-3.96693162c-.2199557-.5667705-.5834739-1.06938789-1.0563449-1.4605521-.4671721-.37644426-1.0592556-.57153036-1.6636511-.54815782-.6059718-.01886667-1.1987912.17560141-1.6710124.54815782-.4731461.39169909-.8377463.89406211-1.0600255 1.4605521l-1.5421899 4.00299462h-2.70527343c-.44984004-.0000045-.81507669.356243-.81710299.7969926 0 .4580922.37901251.8294494.84654814.8294494h2.05379938l-.3165354.8042052h-1.84032201c-.45127353 0-.817103.3584403-.817103.8005989-.00000444.4527042.37347414.8202512.83550622.8222367h1.18148679l-2.00595107 5.3156884c-.12328672.2996903-.19180927.6182931-.20243543.9412447.02091263.4530083.22167704.8800746.5594579 1.1900795.37169674.3154395.84803449.4872528 1.33975446.4832444.85125094.0457129 1.61889834-.4988381 1.84032204-1.3054812l.7766159-2.2683636h7.1441302l.7766159 2.3224581c.2501886.7783218 1.0090079 1.2898446 1.8403221 1.2405678.3093115.0060717.6145405-.0699404.8833546-.2199844.2331823-.1695743.4402002-.3711962.6146676-.5986461.1520208-.2559511.2296642-.5477803.2245192-.8438745-.0487397-.3147916-.1250891-.6248797-.2281999-.9268195z"/><filter id="e" height="119.4%" width="121.9%" x="-10.9%" y="-6.9%"><feOffset dy=".5" in="SourceAlpha" result="shadowOffsetOuter1"/><feGaussianBlur in="shadowOffsetOuter1" result="shadowBlurOuter1" stdDeviation=".5"/><feColorMatrix in="shadowBlurOuter1" values="0 0 0 0 0   0 0 0 0 0   0 0 0 0 0  0 0 0 0.204257246 0"/></filter></defs><g fill="none" fill-rule="nonzero"><g><use fill="#000" filter="url(#c)" xlink:href="#b"/><use fill="#fd875e" fill-rule="evenodd" xlink:href="#b"/><use fill="url(#a)" fill-rule="evenodd" xlink:href="#b"/><circle cx="16" cy="15" r="14.5" stroke="#000" stroke-opacity=".097"/></g><g><use fill="#000" filter="url(#e)" xlink:href="#d"/><use fill="#fff" fill-rule="evenodd" xlink:href="#d"/></g></g></svg>

<svg xmlns="http://www.w3.org/2000/svg" xmlns:xlink="http://www.w3.org/1999/xlink" width="32" height="32" viewBox="0 0 32 32">
  <defs>
    <linearGradient id="appc-c" x1="50%" x2="50%" y1="0%" y2="100%">
      <stop offset="0%" stop-color="#FFF" stop-opacity=".5"/>
      <stop offset="100%" stop-opacity=".5"/>
    </linearGradient>
    <circle id="appc-b" cx="16" cy="15" r="15"/>
    <filter id="appc-a" width="111.7%" height="111.7%" x="-5.8%" y="-4.2%" filterUnits="objectBoundingBox">
      <feOffset dy=".5" in="SourceAlpha" result="shadowOffsetOuter1"/>
      <feGaussianBlur in="shadowOffsetOuter1" result="shadowBlurOuter1" stdDeviation=".5"/>
      <feComposite in="shadowBlurOuter1" in2="SourceAlpha" operator="out" result="shadowBlurOuter1"/>
      <feColorMatrix in="shadowBlurOuter1" values="0 0 0 0 0   0 0 0 0 0   0 0 0 0 0  0 0 0 0.199473505 0"/>
    </filter>
    <path id="appc-e" d="M13.6608306,16.385699 L16.045888,9.27407249 L18.4751131,16.385699 L13.6608306,16.385699 Z M23.77156,20.8827569 L21.7987348,15.5742811 L22.9765409,15.5742811 C23.4458664,15.570338 23.8247726,15.1974779 23.8267697,14.7376192 C23.8267697,14.5272001 23.7414578,14.3253992 23.5896018,14.1766104 C23.4377458,14.0278216 23.2317848,13.9442329 23.017028,13.9442329 L21.1767059,13.9442329 L20.8822544,13.1183898 L22.9765409,13.1183898 C23.4355863,13.1185429 23.811114,12.7601987 23.823089,12.3105783 C23.8240729,12.0893441 23.7348115,11.8768926 23.5751489,11.7204549 C23.4154863,11.5640172 23.1986551,11.4765587 22.9728602,11.4775227 L20.2528642,11.4775227 L18.7806066,7.51059108 C18.5606509,6.94382058 18.1971327,6.44120319 17.7242617,6.05003898 C17.2570896,5.67359472 16.6650061,5.47850862 16.0606106,5.50188116 C15.4546388,5.48301449 14.8618194,5.67748257 14.3895982,6.05003898 C13.9164521,6.44173807 13.5518519,6.94410109 13.3295727,7.51059108 L11.7873828,11.5135857 L9.08210937,11.5135857 C8.63226933,11.5135812 8.26703268,11.8698287 8.26500638,12.3105783 C8.26500638,12.7686705 8.64401889,13.1400277 9.11155452,13.1400277 L11.1653539,13.1400277 L10.8488185,13.9442329 L9.00849649,13.9442329 C8.55722296,13.9442329 8.19139349,14.3026732 8.19139349,14.7448318 C8.19138905,15.197536 8.56486763,15.565083 9.02689971,15.5670685 L10.2083865,15.5670685 L8.20243543,20.8827569 C8.07914871,21.1824472 8.01062616,21.50105 8,21.8240016 C8.02091263,22.2770099 8.22167704,22.7040762 8.5594579,23.0140811 C8.93115464,23.3295206 9.40749239,23.5013339 9.89921236,23.4973255 C10.7504633,23.5430384 11.5181107,22.9984874 11.7395344,22.1918443 L12.5161503,19.9234807 L19.6602805,19.9234807 L20.4368964,22.2459388 C20.687085,23.0242606 21.4459043,23.5357834 22.2772185,23.4865066 C22.58653,23.4925783 22.891759,23.4165662 23.1605731,23.2665222 C23.3937554,23.0969479 23.6007733,22.895326 23.7752407,22.6678761 C23.9272615,22.411925 24.0049049,22.1200958 23.9997599,21.8240016 C23.9510202,21.50921 23.8746708,21.1991219 23.77156,20.8971821 L23.77156,20.8827569 Z"/>
    <filter id="appc-d" width="121.9%" height="119.4%" x="-10.9%" y="-6.9%" filterUnits="objectBoundingBox">
      <feOffset dy=".5" in="SourceAlpha" result="shadowOffsetOuter1"/>
      <feGaussianBlur in="shadowOffsetOuter1" result="shadowBlurOuter1" stdDeviation=".5"/>
      <feColorMatrix in="shadowBlurOuter1" values="0 0 0 0 0   0 0 0 0 0   0 0 0 0 0  0 0 0 0.204257246 0"/>
    </filter>
  </defs>
  <g fill="none" fill-rule="evenodd">
    <g fill-rule="nonzero">
      <use fill="#000" filter="url(#appc-a)" xlink:href="#appc-b"/>
      <use fill="#FD875E" fill-rule="evenodd" xlink:href="#appc-b"/>
      <use fill="url(#appc-c)" fill-rule="evenodd" style="mix-blend-mode:soft-light" xlink:href="#appc-b"/>
      <circle cx="16" cy="15" r="14.5" stroke="#000" stroke-opacity=".097"/>
    </g>
    <g fill-rule="nonzero">
      <use fill="#000" filter="url(#appc-d)" xlink:href="#appc-e"/>
      <use fill="#FFF" fill-rule="evenodd" xlink:href="#appc-e"/>
    </g>
  </g>
</svg>
